media/images/LogoCompagnieMaDark.svg

<svg height="174" viewBox="0 0 177 174" width="177" xmlns="http://www.w3.org/2000/svg" xmlns:xlink="http://www.w3.org/1999/xlink"><defs><path id="a" d="m123.799119 110.162876h7.925659s0-9.65151 12.729089-9.65151c14.410289 0 12.248744 8.686359 12.488917 9.65151-.240172 12.064387-35.785551-1.930302-35.785551 20.509458.940969 28.307579 33.143664 18.337868 35.785551 8.927646 0 8.927647 8.090265 9.410222 12.893693 7.238633.000001.723863.000001-3.860604 0-5.308331-2.161542 0-4.968033.723864-4.487691-2.895453.000001-5.549618 0-29.919679 0-29.919679s1.826407-14.6451449-20.414576-15.6837035c-20.245377 1.0385586-21.135091 12.0643875-21.135091 17.1314295zm33.056227 16.426768c0-2.393488 0-5.983031 0-6.236005-3.53486 2.743842-4.938821 1.837474-14.375098 3.242723-10.390849 1.815698-12.04916 5.984579-12.4244 6.647116-.508388 1.148362-2.033552 4.83142 1.348507 9.067618 2.210208 3.279343 18.381271 8.730408 25.450991-7.919256 0-1.106579 0-2.475579 0-4.802196z"/><filter id="b" height="200%" width="200%" x="-50%" y="-50%"><feOffset dx=".5" dy="2" in="SourceAlpha" result="shadowOffsetOuter1"/><feGaussianBlur in="shadowOffsetOuter1" result="shadowBlurOuter1" stdDeviation="2"/><feColorMatrix in="shadowBlurOuter1" type="matrix" values="0 0 0 0 0   0 0 0 0 0   0 0 0 0 0  0 0 0 0.5 0"/></filter><path id="c" d="m61.7512389 127.118973c.2433922 1.799205.0767642 6.364164 0 7.019392h-46.6350509c-.8510816-2.077498-.3118483-6.636861 0-7.366322h-1.0532949s11.9596756-.766078 16.3819683-4.043676c3.8453004-7.32474 9.9551609-80.7864321 9.1447083-86.3509525-7.9685906-6.9316996-19.3444541-6.2107638-19.3444541-6.2107638s-.2438623-1.3217156-.2438623-3.3643669.2438623-4.0853027.2438623-4.0853027 34.0550603 1.2195736 36.981408 1.2195736c2.9263477 9.5944629 37.8675619 77.7534663 37.8675619 77.7534663.5006713.978519 1.321422.988004 1.8382025.00971 0 0 32.721342-61.6802915 38.145656-77.7631763 2.891816-.0978784 15.21831-1.2195736 36.922056-1.2195736v7.4496696s-18.935596 0-18.935596 6.2107638l-.805338 47.2223836s.805338 1.2015596-7.973705 1.2015596c-8.291311 0-8.291311-1.2015596-8.291311-1.2015596l-.817196-33.0682411c-.054627-2.2104829-.901687-2.3989975-1.8905-.4239812l-20.215361 40.3773672-19.508985 43.256146s-1.7070369 0-3.4140724 0c-1.7070354 0-3.17021 0-3.17021 0s-8.4040157-20.674756-18.5335357-43.256146c-10.1295199-22.5813899-19.9237215-42.4752929-19.9237215-42.4752929s-4.4625115 63.6227419-3.4870603 71.5530349c.7315869 6.488422 9.3549387 6.488422 16.7178308 7.556288.2149558 1.551158 0 0 0 0z"/><filter id="d" height="200%" width="200%" x="-50%" y="-50%"><feOffset dx=".5" dy="2" in="SourceAlpha" result="shadowOffsetOuter1"/><feGaussianBlur in="shadowOffsetOuter1" result="shadowBlurOuter1" stdDeviation="2"/><feColorMatrix in="shadowBlurOuter1" type="matrix" values="0 0 0 0 0   0 0 0 0 0   0 0 0 0 0  0 0 0 0.5 0"/></filter><path id="e" d="m32.6574877 13.6903941c-.5741897.752885-1.319258 1.3637693-2.2352272 1.8326714s-2.0164829.7033496-3.301574.7033496c-1.1073658 0-2.1292714-.1816143-3.0657474-.5448483s-1.7430636-.8717539-2.4197872-1.5255751c-.6767235-.6538212-1.2064739-1.4331116-1.589267-2.3378944-.3827931-.9047829-.5741868-1.89870826-.5741868-2.98180599 0-1.09630624.1948114-2.09683578.5844401-3.00161864s.9296323-1.67746904 1.6200271-2.31808173c.6903947-.64061268 1.5072356-1.13922641 2.4505472-1.49585615s1.9686349-.53494194 3.0760006-.53494194c.4921626 0 .9911533.04622909 1.496987.13868865.5058338.09245957.9911535.23114683 1.4559737.41606595.4648202.18491913.8886205.41276249 1.2714136.68353692.3827931.27077444.7108966.58447182.9843202.94110156l-1.5995203 1.18875985c-.3554508-.47550632-.8578592-.86845356-1.5072404-1.17885352-.6493811-.31039996-1.3500187-.46559761-2.1019338-.46559761-.8476133 0-1.6097703.14859349-2.2864938.44578494-.6767235.29719146-1.2543223.70334701-1.7328137 1.21847886s-.8476078 1.11280791-1.1073602 1.79304612c-.2597525.68023821-.3896268 1.40339322-.3896268 2.16948674 0 .79251053.1264565 1.53217589.3793734 2.21901839s.6151978 1.2845185 1.0868536 1.7930461 1.0458368.908079 1.7225604 1.1986662c.6767235.2905872 1.432045.4358786 2.2659871.4358786.820271 0 1.5653392-.1584997 2.2352272-.4755039.6698879-.3170042 1.2235625-.7792951 1.6610404-1.3868865zm7.5006248 2.1326018h-2.1805405v-10.62337117h2.1805405zm.3711558-14.45585319c0 .38847965-.1430482.70971762-.4291489.96372355-.2861007.25400592-.6301897.38100698-1.0322772.38100698s-.7423102-.13073638-1.0206785-.39221307-.4175503-.57897934-.4175503-.95251746c0-.38847965.139182-.71345295.4175503-.97492964s.618591-.39221307 1.0206785-.39221307.7461765.13073638 1.0322772.39221307.4291489.58644999.4291489.97492964zm14.0212584 8.20285625c-.0154649-.4183627-.0889221-.81057185-.2203738-1.17663922-.1314516-.36606736-.32476-.68357001-.5799309-.95251746s-.5721967-.48186099-.9510868-.638747c-.3788902-.15688602-.8234995-.23532785-1.3338413-.23532785-.4639471 0-.9008241.07844183-1.310644.23532785-.40982.15688601-.7655074.36979955-1.067073.638747s-.5490004.5864501-.7423117.95251746c-.1933113.36606737-.3054301.75827652-.33636 1.17663922zm2.2037377.85166264v.3585948c0 .1195322-.0077323.2390626-.0231972.3585948h-8.722162c.0154649.4482458.1198515.8703375.3131628 1.266288.1933113.3959504.4523445.7396003.7771075 1.03096.324763.2913598.6997812.5192146 1.1250661.6835714.4252848.1643568.8776265.2465339 1.3570385.2465339.7423154 0 1.3840992-.1568836 1.9253708-.4706557.5412717-.313772.9665501-.6947752 1.2758482-1.1430209l1.5310178 1.1878453c-.5876663.7470762-1.2797104 1.2961691-2.0761529 1.6472949s-1.681795.5266861-2.6560839.5266861c-.8351048 0-1.6083384-.1344717-2.3197239-.4034191-.7113856-.2689475-1.3222401-.6462153-1.8325819-1.1318149-.5103419-.4855996-.9124233-1.0720456-1.2062565-1.7593558-.2938331-.6873101-.4407475-1.4493165-.4407475-2.2860419 0-.82178387.1430482-1.5800549.4291489-2.27483581.2861007-.69478092.684316-1.28869763 1.1946578-1.78176796.5103418-.49307032 1.113464-.87780882 1.8093847-1.15422704.6959206-.27641821 1.4459572-.41462525 2.2501322-.41462525s1.5348807.12700106 2.1921391.38100699c.6572584.25400592 1.2139866.6200678 1.6702012 1.0981966.4562147.4781288.808036 1.05710421 1.0554744 1.7369436.2474385.6798394.3711558 1.44558107.3711558 2.29724797zm7.069635 4.0566038c0 .3884797-.1469144.7321296-.4407476 1.0309601-.2938331.2988305-.6649853.4482435-1.1134675.4482435-.4330173 0-.8003032-.1456777-1.1018688-.4370374-.3015656-.2913598-.4523462-.6312744-.4523462-1.019754 0-.4034212.1469144-.7508064.4407476-1.0421662.2938331-.2913597.6649852-.4370374 1.1134674-.4370374s.8196344.1419424 1.1134675.4258313c.2938332.283889.4407476.6275389.4407476 1.0309601z"/><filter id="f" height="200%" width="200%" x="-50%" y="-50%"><feOffset dx=".5" dy="2" in="SourceAlpha" result="shadowOffsetOuter1"/><feGaussianBlur in="shadowOffsetOuter1" result="shadowBlurOuter1" stdDeviation="2"/><feColorMatrix in="shadowBlurOuter1" type="matrix" values="0 0 0 0 0   0 0 0 0 0   0 0 0 0 0  0 0 0 0.5 0"/></filter></defs><g fill="none" fill-rule="evenodd" transform="translate(0 2)"><path d="m74.3096055 171.336192c41.0400615 0 74.3096055-33.269544 74.3096055-74.3096054 0-41.0400619-33.269544-74.3096055-74.3096055-74.3096055-41.0400619 0-74.3096055 33.2695436-74.3096055 74.3096055 0 41.0400614 33.2695436 74.3096054 74.3096055 74.3096054z" fill="#f72c2f"/><use fill="#000" filter="url(#b)" xlink:href="#a"/><use fill="#fff" fill-rule="evenodd" xlink:href="#a"/><use fill="#000" filter="url(#d)" xlink:href="#c"/><use fill="#fff" fill-rule="evenodd" xlink:href="#c"/><use fill="#000" filter="url(#f)" xlink:href="#e"/><use fill="#fff" fill-rule="evenodd" xlink:href="#e"/></g></svg>

<?xml version="1.0" encoding="UTF-8" standalone="no"?>
<svg width="177px" height="174px" viewBox="0 0 177 174" version="1.1" xmlns="http://www.w3.org/2000/svg" xmlns:xlink="http://www.w3.org/1999/xlink">
    <!-- Generator: Sketch 40.3 (33839) - http://www.bohemiancoding.com/sketch -->
    <title>LogoCompagnieMa Dark</title>
    <desc>Created with Sketch.</desc>
    <defs>
        <path d="M123.799119,110.162876 L131.724778,110.162876 C131.724778,110.162876 131.724778,100.511366 144.453867,100.511366 C158.864156,100.511366 156.702611,109.197725 156.942784,110.162876 C156.702612,122.227263 121.157233,108.232574 121.157233,130.672334 C122.098202,158.979913 154.300897,149.010202 156.942784,139.59998 C156.942784,148.527627 165.033049,149.010202 169.836477,146.838613 C169.836478,147.562476 169.836478,142.978009 169.836477,141.530282 C167.674935,141.530282 164.868444,142.254146 165.348786,138.634829 C165.348787,133.085211 165.348786,108.71515 165.348786,108.71515 C165.348786,108.71515 167.175193,94.0700051 144.93421,93.0314465 C124.688833,94.0700051 123.799119,105.095834 123.799119,110.162876 Z M156.855346,126.589644 C156.855346,124.196156 156.855346,120.606613 156.855346,120.353639 C153.320486,123.097481 151.916525,122.191113 142.480248,123.596362 C132.089399,125.41206 130.431088,129.580941 130.055848,130.243478 C129.54746,131.39184 128.022296,135.074898 131.404355,139.311096 C133.614563,142.590439 149.785626,148.041504 156.855346,131.39184 C156.855346,130.285261 156.855346,128.916261 156.855346,126.589644 Z" id="path-1"></path>
        <filter x="-50%" y="-50%" width="200%" height="200%" filterUnits="objectBoundingBox" id="filter-2">
            <feOffset dx="0.5" dy="2" in="SourceAlpha" result="shadowOffsetOuter1"></feOffset>
            <feGaussianBlur stdDeviation="2" in="shadowOffsetOuter1" result="shadowBlurOuter1"></feGaussianBlur>
            <feColorMatrix values="0 0 0 0 0   0 0 0 0 0   0 0 0 0 0  0 0 0 0.5 0" type="matrix" in="shadowBlurOuter1"></feColorMatrix>
        </filter>
        <path d="M61.7512389,127.118973 C61.9946311,128.918178 61.8280031,133.483137 61.7512389,134.138365 L61.7512389,134.138365 L15.116188,134.138365 L15.116188,134.138365 C14.2651064,132.060867 14.8043397,127.501504 15.116188,126.772043 L15.116188,126.772043 L14.0628931,126.772043 C14.0628931,126.772043 26.0225687,126.005965 30.4448614,122.728367 C34.2901618,115.403627 40.4000223,41.9419349 39.5895697,36.3774145 C31.6209791,29.4457149 20.2451156,30.1666507 20.2451156,30.1666507 C20.2451156,30.1666507 20.0012533,28.8449351 20.0012533,26.8022838 C20.0012533,24.7596325 20.2451156,22.7169811 20.2451156,22.7169811 C20.2451156,22.7169811 54.3001759,23.9365547 57.2265236,23.9365547 C60.1528713,33.5310176 95.0940855,101.690021 95.0940855,101.690021 C95.5947568,102.66854 96.4155075,102.678025 96.932288,101.699731 C96.932288,101.699731 129.65363,40.0194395 135.077944,23.9365547 C137.96976,23.8386763 150.296254,22.7169811 172,22.7169811 L172,30.1666507 C172,30.1666507 153.064404,30.1666507 153.064404,36.3774145 L152.259066,83.5997981 C152.259066,83.5997981 153.064404,84.8013577 144.285361,84.8013577 C135.99405,84.8013577 135.99405,83.5997981 135.99405,83.5997981 L135.176854,50.531557 C135.122227,48.3210741 134.275167,48.1325595 133.286354,50.1075758 L113.070993,90.484943 L93.562008,133.741089 C93.562008,133.741089 91.8549711,133.741089 90.1479356,133.741089 C88.4409002,133.741089 86.9777256,133.741089 86.9777256,133.741089 C86.9777256,133.741089 78.5737099,113.066333 68.4441899,90.484943 C58.31467,67.9035531 48.5204684,48.0096501 48.5204684,48.0096501 C48.5204684,48.0096501 44.0579569,111.632392 45.0334081,119.562685 C45.764995,126.051107 54.3883468,126.051107 61.7512389,127.118973 C61.9661947,128.670131 61.7512389,127.118973 61.7512389,127.118973 Z" id="path-3"></path>
        <filter x="-50%" y="-50%" width="200%" height="200%" filterUnits="objectBoundingBox" id="filter-4">
            <feOffset dx="0.5" dy="2" in="SourceAlpha" result="shadowOffsetOuter1"></feOffset>
            <feGaussianBlur stdDeviation="2" in="shadowOffsetOuter1" result="shadowBlurOuter1"></feGaussianBlur>
            <feColorMatrix values="0 0 0 0 0   0 0 0 0 0   0 0 0 0 0  0 0 0 0.5 0" type="matrix" in="shadowBlurOuter1"></feColorMatrix>
        </filter>
        <path d="M32.6574877,13.6903941 C32.083298,14.4432791 31.3382297,15.0541634 30.4222605,15.5230655 C29.5062913,15.9919676 28.4057776,16.2264151 27.1206865,16.2264151 C26.0133207,16.2264151 24.9914151,16.0448008 24.0549391,15.6815668 C23.1184631,15.3183328 22.3118755,14.8098129 21.6351519,14.1559917 C20.9584284,13.5021705 20.428678,12.7228801 20.0458849,11.8180973 C19.6630918,10.9133144 19.4716981,9.91938904 19.4716981,8.83629131 C19.4716981,7.73998507 19.6665095,6.73945553 20.0561382,5.83467267 C20.4457669,4.92988981 20.9857705,4.15720363 21.6761653,3.51659094 C22.36656,2.87597826 23.1834009,2.37736453 24.1267125,2.02073479 C25.0700241,1.66410505 26.0953474,1.48579285 27.2027131,1.48579285 C27.6948757,1.48579285 28.1938664,1.53202194 28.6997001,1.6244815 C29.2055339,1.71694107 29.6908536,1.85562833 30.1556738,2.04054745 C30.620494,2.22546658 31.0442943,2.45330994 31.4270874,2.72408437 C31.8098805,2.99485881 32.137984,3.30855619 32.4114076,3.66518593 L30.8118873,4.85394578 C30.4564365,4.37843946 29.9540281,3.98549222 29.3046469,3.67509226 C28.6552658,3.3646923 27.9546282,3.20949465 27.2027131,3.20949465 C26.3550998,3.20949465 25.5929428,3.35808814 24.9162193,3.65527959 C24.2394958,3.95247105 23.661897,4.3586266 23.1834056,4.87375845 C22.7049142,5.3888903 22.3357978,5.98656636 22.0760454,6.66680457 C21.8162929,7.34704278 21.6864186,8.07019779 21.6864186,8.83629131 C21.6864186,9.62880184 21.8128751,10.3684672 22.065792,11.0553097 C22.3187089,11.7421522 22.6809898,12.3398282 23.1526456,12.8483558 C23.6243014,13.3568834 24.1984824,13.7564348 24.875206,14.047022 C25.5519295,14.3376092 26.307251,14.4829006 27.1411931,14.4829006 C27.9614641,14.4829006 28.7065323,14.3244009 29.3764203,14.0073967 C30.0463082,13.6903925 30.5999828,13.2281016 31.0374607,12.6205102 L32.6574877,13.6903941 Z M40.1581125,15.8229959 L37.977572,15.8229959 L37.977572,5.19962473 L40.1581125,5.19962473 L40.1581125,15.8229959 Z M40.5292683,1.36714271 C40.5292683,1.75562236 40.3862201,2.07686033 40.1001194,2.33086626 C39.8140187,2.58487218 39.4699297,2.71187324 39.0678422,2.71187324 C38.6657547,2.71187324 38.325532,2.58113686 38.0471637,2.31966017 C37.7687954,2.05818348 37.6296134,1.74068083 37.6296134,1.36714271 C37.6296134,0.978663056 37.7687954,0.653689761 38.0471637,0.392213072 C38.325532,0.130736383 38.6657547,0 39.0678422,0 C39.4699297,0 39.8140187,0.130736383 40.1001194,0.392213072 C40.3862201,0.653689761 40.5292683,0.978663056 40.5292683,1.36714271 L40.5292683,1.36714271 Z M54.5505267,9.56999896 C54.5350618,9.15163626 54.4616046,8.75942711 54.3301529,8.39335974 C54.1987013,8.02729238 54.0053929,7.70978973 53.750222,7.44084228 C53.4950511,7.17189483 53.1780253,6.95898129 52.7991352,6.80209528 C52.420245,6.64520926 51.9756357,6.56676743 51.4652939,6.56676743 C51.0013468,6.56676743 50.5644698,6.64520926 50.1546499,6.80209528 C49.7448299,6.95898129 49.3891425,7.17189483 49.0875769,7.44084228 C48.7860113,7.70978973 48.5385765,8.02729238 48.3452652,8.39335974 C48.1519539,8.75942711 48.0398351,9.15163626 48.0089052,9.56999896 L54.5505267,9.56999896 Z M56.7542644,10.4216616 L56.7542644,10.7802564 C56.7542644,10.8997886 56.7465321,11.019319 56.7310672,11.1388512 L48.0089052,11.1388512 C48.0243701,11.587097 48.1287567,12.0091887 48.322068,12.4051392 C48.5153793,12.8010896 48.7744125,13.1447395 49.0991755,13.4360992 C49.4239385,13.727459 49.7989567,13.9553138 50.2242416,14.1196706 C50.6495264,14.2840274 51.1018681,14.3662045 51.5812801,14.3662045 C52.3235955,14.3662045 52.9653793,14.2093209 53.5066509,13.8955488 C54.0479226,13.5817768 54.473201,13.2007736 54.7824991,12.7525279 L56.3135169,13.9403732 C55.7258506,14.6874494 55.0338065,15.2365423 54.237364,15.5876681 C53.4409215,15.9387939 52.555569,16.1143542 51.5812801,16.1143542 C50.7461753,16.1143542 49.9729417,15.9798825 49.2615562,15.7109351 C48.5501706,15.4419876 47.9393161,15.0647198 47.4289743,14.5791202 C46.9186324,14.0935206 46.516551,13.5070746 46.2227178,12.8197644 C45.9288847,12.1324543 45.7819703,11.3704479 45.7819703,10.5337225 C45.7819703,9.71193863 45.9250185,8.9536676 46.2111192,8.25888669 C46.4972199,7.56410577 46.8954352,6.97018906 47.405777,6.47711873 C47.9161188,5.98404841 48.519241,5.59930991 49.2151617,5.32289169 C49.9110823,5.04647348 50.6611189,4.90826644 51.4652939,4.90826644 C52.2694689,4.90826644 53.0001746,5.0352675 53.657433,5.28927343 C54.3146914,5.54327935 54.8714196,5.90934123 55.3276342,6.38747003 C55.7838489,6.86559883 56.1356702,7.44457424 56.3831086,8.12441363 C56.6305471,8.80425303 56.7542644,9.5699947 56.7542644,10.4216616 L56.7542644,10.4216616 Z M63.8238994,14.4782654 C63.8238994,14.8667451 63.676985,15.210395 63.3831518,15.5092255 C63.0893187,15.808056 62.7181665,15.957469 62.2696843,15.957469 C61.836667,15.957469 61.4693811,15.8117913 61.1678155,15.5204316 C60.8662499,15.2290718 60.7154693,14.8891572 60.7154693,14.5006776 C60.7154693,14.0972564 60.8623837,13.7498712 61.1562169,13.4585114 C61.45005,13.1671517 61.8212021,13.021474 62.2696843,13.021474 C62.7181665,13.021474 63.0893187,13.1634164 63.3831518,13.4473053 C63.676985,13.7311943 63.8238994,14.0748442 63.8238994,14.4782654 L63.8238994,14.4782654 Z" id="path-5"></path>
        <filter x="-50%" y="-50%" width="200%" height="200%" filterUnits="objectBoundingBox" id="filter-6">
            <feOffset dx="0.5" dy="2" in="SourceAlpha" result="shadowOffsetOuter1"></feOffset>
            <feGaussianBlur stdDeviation="2" in="shadowOffsetOuter1" result="shadowBlurOuter1"></feGaussianBlur>
            <feColorMatrix values="0 0 0 0 0   0 0 0 0 0   0 0 0 0 0  0 0 0 0.5 0" type="matrix" in="shadowBlurOuter1"></feColorMatrix>
        </filter>
    </defs>
    <g id="Welcome" stroke="none" stroke-width="1" fill="none" fill-rule="evenodd">
        <g id="Desktop-HD" transform="translate(-503.000000, -78.000000)">
            <g id="LogoCompagnieMa-Dark" transform="translate(503.000000, 80.000000)">
                <path d="M74.3096055,171.336192 C115.349667,171.336192 148.619211,138.066648 148.619211,97.0265866 C148.619211,55.9865247 115.349667,22.7169811 74.3096055,22.7169811 C33.2695436,22.7169811 0,55.9865247 0,97.0265866 C0,138.066648 33.2695436,171.336192 74.3096055,171.336192 Z" id="CercleROuge-Logo" fill="#F72C2F"></path>
                <g id="Combined-Shape">
                    <use fill="black" fill-opacity="1" filter="url(#filter-2)" xlink:href="#path-1"></use>
                    <use fill="#FFFFFF" fill-rule="evenodd" xlink:href="#path-1"></use>
                </g>
                <g id="grand-M-logo">
                    <use fill="black" fill-opacity="1" filter="url(#filter-4)" xlink:href="#path-3"></use>
                    <use fill="#FFFFFF" fill-rule="evenodd" xlink:href="#path-3"></use>
                </g>
                <g id="Cie.">
                    <use fill="black" fill-opacity="1" filter="url(#filter-6)" xlink:href="#path-5"></use>
                    <use fill="#FFFFFF" fill-rule="evenodd" xlink:href="#path-5"></use>
                </g>
            </g>
        </g>
    </g>
</svg>
